src/assets/icons/months,fancy,october-10.svg

<svg width="48" height="48" viewBox="0 0 48 48" fill="none" xmlns="http://www.w3.org/2000/svg">
<rect opacity="0.2" x="4" y="6" width="40" height="40" rx="4" fill="black"/>
<path d="M18.0874 30.1818C18.0874 26.375 15.7237 24.2045 12.6385 24.2045C9.53622 24.2045 7.18963 26.375 7.18963 30.1818C7.18963 33.9716 9.53622 36.1591 12.6385 36.1591C15.7237 36.1591 18.0874 33.9886 18.0874 30.1818ZM15.593 30.1818C15.593 32.6477 14.4226 33.983 12.6385 33.983C10.8487 33.983 9.68395 32.6477 9.68395 30.1818C9.68395 27.7159 10.8487 26.3807 12.6385 26.3807C14.4226 26.3807 15.593 27.7159 15.593 30.1818ZM30.1768 28.4375C29.853 25.75 27.8189 24.2045 25.1257 24.2045C22.0518 24.2045 19.7053 26.375 19.7053 30.1818C19.7053 33.9773 22.0121 36.1591 25.1257 36.1591C28.1087 36.1591 29.9098 34.1761 30.1768 32.0341L27.6882 32.0227C27.4553 33.267 26.478 33.983 25.1655 33.983C23.3984 33.983 22.1996 32.6705 22.1996 30.1818C22.1996 27.7614 23.3814 26.3807 25.1825 26.3807C26.5291 26.3807 27.5007 27.1591 27.6882 28.4375H30.1768ZM31.4979 26.392H35.0604V36H37.4922V26.392H41.0547V24.3636H31.4979V26.392Z" fill="black"/>
<g opacity="0.4">
<path d="M10 4C10 2.89543 10.8954 2 12 2C13.1046 2 14 2.89543 14 4V8C14 9.10457 13.1046 10 12 10C10.8954 10 10 9.10457 10 8V4Z" fill="black"/>
<path d="M34 4C34 2.89543 34.8954 2 36 2C37.1046 2 38 2.89543 38 4V8C38 9.10457 37.1046 10 36 10C34.8954 10 34 9.10457 34 8V4Z" fill="black"/>
</g>
<path fill-rule="evenodd" clip-rule="evenodd" d="M10 6.00869C7.52043 6.04456 6.11466 6.22849 5.17157 7.17157C4 8.34315 4 10.2288 4 14V16H44V14C44 10.2288 44 8.34315 42.8284 7.17157C41.8853 6.22849 40.4796 6.04456 38 6.00869V8C38 9.10457 37.1046 10 36 10C34.8954 10 34 9.10457 34 8V6H14V8C14 9.10457 13.1046 10 12 10C10.8954 10 10 9.10457 10 8V6.00869Z" fill="black"/>
</svg>

<svg xmlns="http://www.w3.org/2000/svg" width="48" height="48" fill="none" viewBox="0 0 48 48">
  <rect width="40" height="40" x="4" y="6" fill="#000" opacity=".2" rx="4"/>
  <path fill="#000" d="M18.087 30.182c0-3.807-2.363-5.977-5.448-5.977-3.103 0-5.45 2.17-5.45 5.977 0 3.79 2.347 5.977 5.45 5.977 3.085 0 5.448-2.17 5.448-5.977zm-2.494 0c0 2.466-1.17 3.801-2.954 3.801-1.79 0-2.955-1.335-2.955-3.801s1.165-3.801 2.955-3.801c1.784 0 2.954 1.335 2.954 3.8zm14.584-1.744c-.324-2.688-2.358-4.233-5.051-4.233-3.074 0-5.42 2.17-5.42 5.977 0 3.795 2.306 5.977 5.42 5.977 2.983 0 4.784-1.983 5.05-4.125l-2.488-.011c-.233 1.244-1.21 1.96-2.522 1.96-1.768 0-2.966-1.313-2.966-3.801 0-2.42 1.181-3.801 2.983-3.801 1.346 0 2.318.778 2.505 2.056h2.489zm1.32-2.046h3.563V36h2.432v-9.608h3.563v-2.028h-9.557v2.028z"/>
  <g opacity=".4">
    <path fill="#000" d="M10 4a2 2 0 114 0v4a2 2 0 11-4 0V4zM34 4a2 2 0 114 0v4a2 2 0 11-4 0V4z"/>
  </g>
  <path fill="#000" fill-rule="evenodd" d="M10 6.009c-2.48.036-3.885.22-4.828 1.163C4 8.343 4 10.229 4 14v2h40v-2c0-3.771 0-5.657-1.172-6.828-.943-.944-2.348-1.127-4.828-1.163V8a2 2 0 11-4 0V6H14v2a2 2 0 11-4 0V6.009z" clip-rule="evenodd"/>
</svg>
